X:0085
T:Tulloch Gorm.
N:one NLS copy has pencilled-in fiddle fingerings from a
N:desperate previous owner; forget it, this is a flute tune
M:2/4
L:1/8
Q:1/4=124
I: :: ::
Z:Jack Campin * www.campin.me.uk * 2009
K:EMin
(d/e/f/g/) ad|gc  e2|fdad |fgad'   |fdad  |gc e2|dd'ag|Tf2 ef:|
 dd'ab       |c'c e2|dd'ab|c'd'e'd'|c'bac'|ec e2|dd'ag|Tf2 ef:|
<end>
<start>
